X:130
T:Napanee Fiddler's Breakdo
R:reel
C:Bruce Osborne - July 2002
Z:abc by bosborne@kos.net
M:2/4
L:1/8
K:Amaj
C/D/|E/F/E/D/ E/C/A,/C/|E/F/E/D/ Ec/d/|e/c/e/f/ e/c/A/c/|e/c/A/c/ BC/D/|\
E/F/E/D/ E/C/A,/C/|E/F/E/D/ Ec/d/|e/c/e/f/ e/c/A/c/|B/A/G/B/ A:|\
C/B,/|A,/C/E/A/ c/f/e/c/|a/e/c/f/ e/c/A/c/|B/A/B/c/ d/B/G/B/|A/G/A/B/ cC/B,/|\
A,/C/E/A/ c/f/e/c/|a/e/c/f/ e/c/A/c/|B/A/B/c/ d/B/G/B/|A/G/A/B/ A:|
